X: 13203
T: Fish In A Pothole
R: polka
M: 2/4
K: Bminor
B/c/d|:ff A/B/c|d2 B/c/d|ff Bc|de/d/ c2|
ff ee|dd c2|ef/e/ dc|1 B2 B/c/d:|2 B2- Be/f/||
|:ge fd|ec dB|bg af|ge f2|
ff ee|dd c2|ef/e/ dc|1 B2- Be/f/:|2 B2 B/c/d||

